X:6
T:Hearts of Oak. RHu.006
S:R.Hughes MS,1823,Whitchurch,Shrops.
A:Whitchurch, Shropshire
Z:Neil Brookes 2006
M:4/4
L:1/8
Q:1/4=100
R:Air
K:F
c2|f2fff2ag|f2edc2zc|d2def2fg|a2bga2zc|!
f2ABc2de|f2ABc2zg|a2gfc’2ef|g2gGc2gg|!
g2e2fgc’b|a2fga2zg|fedaf2d2|ffc2AF zc|!
defg “^a is qu in MS”a2gf|c’2cef2|]

